ocarina: o5
c-6 c-6 f-2~3 a-6 g-6 f-6 g-2~2
d-6 e-6 f-2~3 f-7 g-6 f-6 e-2~2

c-6 c-6 f-2~3 a-6 g-6 f-6 g-2~2
d-6 e-6 f-2~3 f-5 e-3 d-6 c-6 d-2~2

c-6 c-6 f-2~3 a-6 g-6 f-6 g-2~2
d-6 e-6 f-2~3 f-7 g-6 f-6 e-2~2
